apps/scalable/avidemux.svg

<svg xmlns="http://www.w3.org/2000/svg" style="isolation:isolate" width="256" height="256"><defs><filter id="a" width="270.648" height="254.338" x="-7.32" y="2.95" filterUnits="userSpaceOnUse"><feGaussianBlur xmlns="http://www.w3.org/2000/svg" in="SourceGraphic" stdDeviation="4.294"/><feOffset xmlns="http://www.w3.org/2000/svg" dy="4" result="pf_100_offsetBlur"/><feFlood xmlns="http://www.w3.org/2000/svg" flood-opacity=".4"/><feComposite xmlns="http://www.w3.org/2000/svg" in2="pf_100_offsetBlur" operator="in" result="pf_100_dropShadow"/><feBlend xmlns="http://www.w3.org/2000/svg" in="SourceGraphic" in2="pf_100_dropShadow"/></filter></defs><g filter="url(#a)"><linearGradient id="b" x1=".5" x2=".5" y1="-.036" y2="1.036" gradientTransform="matrix(244.648 0 0 228.338 5.676 11.947)" gradientUnits="userSpaceOnUse"><stop offset="0%"/><stop offset="100%" stop-color="#333"/></linearGradient><path fill="url(#b)" d="M165.685 11.947c74.055 0 84.639 10.557 84.639 84.544v59.251c0 73.986-10.584 84.543-84.639 84.543h-75.37c-74.055 0-84.639-10.557-84.639-84.543V96.491c0-73.987 10.584-84.544 84.639-84.544h75.37z"/></g><path fill="#FFF" d="M8.476 55.74C6.729 66.667 6.158 80.255 6.158 97.205v59.251c0 73.986 10.584 84.544 84.64 84.544h75.369c55.135 0 75.078-5.874 81.675-39.397L8.476 55.74z" opacity=".05"/><path fill="#F22C42" d="M79.262 12.204c-5.847.083-11.904.114-16.916.408-5.544.325-10.104.992-14.706 1.657L33.345 67.618h31.071l14.846-55.414z"/><radialGradient id="c" cx=".5" cy=".5" r="14.914" fx=".5" fy=".5" gradientTransform="matrix(108.695 0 0 117.938 79.653 91.031)" gradientUnits="userSpaceOnUse"><stop offset="0%" stop-color="#f5f5f5"/><stop offset="100%" stop-color="#fbfbfb"/></radialGradient><path fill="url(#c)" d="M79.653 91.031v117.938s59.816-24.176 108.694-59.006c0-.011-.006-.018-.012-.033a.187.187 0 0 0-.022-.039c-.01-.014-.019-.025-.025-.038a.093.093 0 0 1-.012-.037c-51.557-35.94-108.623-58.785-108.623-58.785z"/><path fill="#1A7FD4" d="M194.633 13.135c-1.647-.134-2.88-.42-4.623-.523-7.524-.442-15.952-.612-25.393-.612h-.608l-14.911 55.644h30.931l14.604-54.509z"/><path fill="#46A926" d="M137.082 12h-30.467L91.721 67.58h30.467L137.082 12z"/><circle fill="#FDC92B" r="1" transform="translate(217.809 59.367) scale(9.661)" vector-effect="non-scaling-stroke"/><g opacity=".4"><linearGradient id="d" x1=".517" x2=".517" y2="1"><stop offset="0%" stop-color="#fff"/><stop offset="12.5%" stop-opacity=".098" stop-color="#fff"/><stop offset="92.5%" stop-opacity=".098"/><stop offset="100%" stop-opacity=".498"/></linearGradient><path fill="none" stroke="url(#d)" stroke-linecap="round" stroke-linejoin="round" stroke-width="4.077" d="M165.685 11.947c74.055 0 84.639 10.557 84.639 84.544v59.251c0 73.986-10.584 84.543-84.639 84.543h-75.37c-74.055 0-84.639-10.557-84.639-84.543V96.491c0-73.987 10.584-84.544 84.639-84.544h75.37z" vector-effect="non-scaling-stroke"/></g></svg>

<svg xmlns="http://www.w3.org/2000/svg" style="isolation:isolate" width="256" height="256" viewBox="0 0 256 256">
 <defs>
  <filter id="HSXzCYYzTSLkokoRgFZQkiXv8hkwIJwk" width="270.648" height="254.338" x="-7.32" y="2.95" filterUnits="userSpaceOnUse">
   <feGaussianBlur xmlns="http://www.w3.org/2000/svg" in="SourceGraphic" stdDeviation="4.294"/>
   <feOffset xmlns="http://www.w3.org/2000/svg" dx="0" dy="4" result="pf_100_offsetBlur"/>
   <feFlood xmlns="http://www.w3.org/2000/svg" flood-opacity=".4"/>
   <feComposite xmlns="http://www.w3.org/2000/svg" in2="pf_100_offsetBlur" operator="in" result="pf_100_dropShadow"/>
   <feBlend xmlns="http://www.w3.org/2000/svg" in="SourceGraphic" in2="pf_100_dropShadow" mode="normal"/>
  </filter>
 </defs>
 <g filter="url(#HSXzCYYzTSLkokoRgFZQkiXv8hkwIJwk)">
  <linearGradient id="_lgradient_268" x1=".5" x2=".5" y1="-.036" y2="1.036" gradientTransform="matrix(244.648,0,0,228.338,5.676,11.947)" gradientUnits="userSpaceOnUse">
   <stop offset="0%" style="stop-color:rgb(0,0,0)"/>
   <stop offset="100%" style="stop-color:rgb(51,51,51)"/>
  </linearGradient>
  <path fill="url(#_lgradient_268)" d="M 165.685 11.947 C 239.74 11.947 250.324 22.504 250.324 96.491 L 250.324 155.742 C 250.324 229.728 239.74 240.285 165.685 240.285 L 90.315 240.285 C 16.26 240.285 5.676 229.728 5.676 155.742 L 5.676 96.491 C 5.676 22.504 16.26 11.947 90.315 11.947 L 165.685 11.947 Z"/>
 </g>
 <g opacity=".05">
  <path fill="#FFFFFF" d="M 8.476 55.74 C 6.729 66.667 6.158 80.255 6.158 97.205 L 6.158 156.456 C 6.158 230.442 16.742 241 90.798 241 L 166.167 241 C 221.302 241 241.245 235.126 247.842 201.603 L 8.476 55.74 Z"/>
 </g>
 <g>
  <path fill="#F22C42" d="M 79.262 12.204 C 73.415 12.287 67.358 12.318 62.346 12.612 C 56.802 12.937 52.242 13.604 47.64 14.269 L 33.345 67.618 L 64.416 67.618 L 79.262 12.204 Z"/>
  <radialGradient id="_rgradient_11" cx=".5" cy=".5" r="14.914" fx=".5" fy=".5" gradientTransform="matrix(108.695,0,0,117.938,79.653,91.031)" gradientUnits="userSpaceOnUse">
   <stop offset="0%" style="stop-color:rgb(245,245,245)"/>
   <stop offset="100%" style="stop-color:rgb(251,251,251)"/>
  </radialGradient>
  <path fill="url(#_rgradient_11)" d="M 79.653 91.031 L 79.653 208.969 C 79.653 208.969 139.469 184.793 188.347 149.963 C 188.347 149.952 188.341 149.945 188.335 149.93 C 188.329 149.915 188.322 149.904 188.313 149.891 C 188.303 149.877 188.294 149.866 188.288 149.853 C 188.281 149.838 188.276 149.827 188.276 149.816 C 136.719 113.876 79.653 91.031 79.653 91.031 L 79.653 91.031 Z"/>
  <path fill="#1A7FD4" d="M 194.633 13.135 C 192.986 13.001 191.753 12.715 190.01 12.612 C 182.486 12.17 174.058 12 164.617 12 L 164.009 12 L 149.098 67.644 L 180.029 67.644 L 194.633 13.135 Z"/>
  <path fill="#46A926" d="M 137.082 12 L 106.615 12 L 91.721 67.58 L 122.188 67.58 L 137.082 12 Z"/>
  <circle fill="#FDC92B" cx="0" cy="0" r="1" transform="matrix(9.661,0,0,9.661,217.809,59.367)" vector-effect="non-scaling-stroke"/>
 </g>
 <g opacity=".4">
  <linearGradient id="_lgradient_269" x1=".517" x2=".517" y1="0" y2="1">
   <stop offset="0%" style="stop-color:rgb(255,255,255)"/>
   <stop offset="12.5%" stop-opacity=".098" style="stop-color:rgb(255,255,255)"/>
   <stop offset="92.5%" stop-opacity=".098" style="stop-color:rgb(0,0,0)"/>
   <stop offset="100%" stop-opacity=".498" style="stop-color:rgb(0,0,0)"/>
  </linearGradient>
  <path fill="none" stroke="url(#_lgradient_269)" stroke-linecap="round" stroke-linejoin="round" stroke-width="4.077" d="M 165.685 11.947 C 239.74 11.947 250.324 22.504 250.324 96.491 L 250.324 155.742 C 250.324 229.728 239.74 240.285 165.685 240.285 L 90.315 240.285 C 16.26 240.285 5.676 229.728 5.676 155.742 L 5.676 96.491 C 5.676 22.504 16.26 11.947 90.315 11.947 L 165.685 11.947 Z" vector-effect="non-scaling-stroke"/>
 </g>
</svg>
